public/images/hashed/a813b3a992c12a871886b5ab1683e31a.svg

<?xml version="1.0" encoding="UTF-8"?>
<svg width="80px" height="80px" viewBox="0 0 80 80" version="1.1" xmlns="http://www.w3.org/2000/svg" xmlns:xlink="http://www.w3.org/1999/xlink">
    <!-- Generator: Sketch 64 (93537) - https://sketch.com -->
    <title>Icon-Architecture/64/Arch_AWS-Ground-Station_64</title>
    <desc>Created with Sketch.</desc>
    <defs>
        <linearGradient x1="0%" y1="100%" x2="100%" y2="0%" id="linearGradient-1">
            <stop stop-color="#2E27AD" offset="0%"></stop>
            <stop stop-color="#527FFF" offset="100%"></stop>
        </linearGradient>
    </defs>
    <g id="Icon-Architecture/64/Arch_AWS-Ground-Station_64" stroke="none" stroke-width="1" fill="none" fill-rule="evenodd">
        <g id="Icon-Architecture-BG/64/Satellite" fill="url(#linearGradient-1)">
            <rect id="Rectangle" x="0" y="0" width="80" height="80"></rect>
        </g>
        <path d="M33.9531943,64.9860515 L37.9610191,64.9860515 L37.9610191,44.846567 L33.9531943,44.846567 L33.9531943,64.9860515 Z M21.1131256,32.7628762 L27.7591011,32.7628762 C27.6178253,36.2006862 28.6348108,39.0433745 29.7429744,41.0804833 C24.5929195,38.2327602 21.6942602,35.4454556 21.1131256,32.7628762 L21.1131256,32.7628762 Z M35.2737726,28.7349793 L36.4450594,28.7349793 L37.5111408,30.7489278 L34.1225249,30.7489278 L35.2737726,28.7349793 Z M35.9571067,23.7142058 L36.9440336,24.7070824 L35.9571067,25.699959 L34.9701799,24.7070824 L35.9571067,23.7142058 Z M42.5770313,40.7491888 C43.7092419,38.7372543 44.7021804,36.015403 44.5869555,32.7628762 L49.7159693,32.7628762 C49.1137936,36.013389 45.7091464,38.8107634 42.5770313,40.7491888 L42.5770313,40.7491888 Z M36.9590629,32.7628762 L42.5790353,32.7628762 C42.7834343,38.047477 39.5070375,41.8457838 38.5531752,42.8326185 L36.9590629,42.8326185 L36.9590629,32.7628762 Z M33.3860871,42.8326185 C32.4803187,41.8125536 29.5245479,38.0484839 29.7680233,32.7628762 L34.9551505,32.7628762 L34.9551505,42.8326185 L33.3860871,42.8326185 Z M51.8140656,31.755902 C51.8140656,31.2000522 51.3661911,30.7489278 50.8121094,30.7489278 L39.7805716,30.7489278 L37.9319624,27.2547272 C37.8518059,27.105695 37.735579,26.986872 37.6003149,26.8952374 L38.6694022,25.8218029 C38.856768,25.6324917 38.9629753,25.3767202 38.9629753,25.1098721 L38.9629753,24.3042927 C38.9629753,24.0374445 38.856768,23.7816731 38.6694022,23.5923619 L37.0662722,21.9812031 C36.8789064,21.791892 36.6244096,21.6861597 36.3578892,21.6861597 L35.5553223,21.6861597 C35.2898039,21.6861597 35.035307,21.791892 34.8469393,21.9812031 L33.2448113,23.5923619 C33.0564435,23.7816731 32.9512381,24.0374445 32.9512381,24.3042927 L32.9512381,25.1098721 C32.9512381,25.3767202 33.0564435,25.6324917 33.2448113,25.8218029 L34.2497734,26.831798 C34.0764349,26.9194048 33.9261415,27.0513184 33.8249439,27.2265319 L31.811012,30.7489278 L20.0019562,30.7489278 C19.4478744,30.7489278 19,31.2000522 19,31.755902 C19,36.133219 23.2452884,40.2960504 31.9492819,44.4719726 L31.9492819,65.9930258 C31.9492819,66.5488755 32.3971564,67 32.9512381,67 L38.9629753,67 C39.5170571,67 39.9649315,66.5488755 39.9649315,65.9930258 L39.9649315,44.4729795 C44.6450689,42.1992317 51.8140656,37.7413568 51.8140656,31.755902 L51.8140656,31.755902 Z M42.881626,23.5913549 L41.0871225,24.487562 C40.0801565,22.4524671 38.0511952,21.1877075 35.791784,21.1877075 C33.5313708,21.1877075 31.5024095,22.4524671 30.4964454,24.487562 L28.7019419,23.5913549 C30.0475691,20.8664827 32.7648743,19.173759 35.791784,19.173759 C38.8166897,19.173759 41.5339949,20.8664827 42.881626,23.5913549 L42.881626,23.5913549 Z M43.8334844,23.1039794 C42.3014934,20.0176034 39.2204781,18.1003245 35.791784,18.1003245 C32.3560761,18.1003245 29.272055,20.0236452 27.7420678,23.1180771 L25.9475643,22.222877 C27.8182165,18.4376608 31.5895797,16.086376 35.791784,16.086376 C39.9849707,16.086376 43.7533279,18.430612 45.6259841,22.2047514 L43.8334844,23.1039794 Z M24.9906961,21.7445642 L23.1961926,20.8473502 C25.5898659,16.006825 30.4172909,13 35.791784,13 C41.1492438,13 45.969655,15.9937344 48.3703421,20.813113 L46.5768405,21.714355 C44.5198244,17.5807258 40.3867551,15.0139485 35.791784,15.0139485 C31.1827854,15.0139485 27.0437044,17.5928095 24.9906961,21.7445642 L24.9906961,21.7445642 Z M52.2118422,46.1949055 C52.9232311,44.7801067 53.4903383,42.9665461 53.4362326,40.81867 L58.7946944,40.81867 C57.9941314,42.8587998 54.9511904,44.7710439 52.2118422,46.1949055 L52.2118422,46.1949055 Z M44.9747125,64.9860515 L47.9805811,64.9860515 L47.9805811,49.8814381 L44.9747125,49.8814381 L44.9747125,64.9860515 Z M61,39.8116958 C61,39.255846 60.5521256,38.8047216 59.9980438,38.8047216 L49.9844935,38.8047216 L49.9844935,40.81867 L51.4303163,40.81867 C51.5435374,44.5756909 49.3462474,47.1072241 48.5847607,47.8674897 L44.9747125,47.8674897 L44.9747125,44.846567 L42.9708001,44.846567 L42.9708001,65.9930258 C42.9708001,66.5488755 43.4186746,67 43.9727563,67 L48.9825373,67 C49.5366191,67 49.9844935,66.5488755 49.9844935,65.9930258 L49.9844935,49.5169134 C54.1235746,47.5865438 61,44.3652333 61,39.8116958 L61,39.8116958 Z" id="AWS-Ground-Station_Icon_64_Squid" fill="#FFFFFF"></path>
    </g>
</svg>

<svg xmlns="http://www.w3.org/2000/svg" width="80" height="80"><defs><linearGradient id="a" x1="0%" x2="100%" y1="100%" y2="0%"><stop offset="0%" stop-color="#2E27AD"/><stop offset="100%" stop-color="#527FFF"/></linearGradient></defs><g fill="none" fill-rule="evenodd"><path fill="url(#a)" d="M0 0h80v80H0z"/><path fill="#FFF" d="M33.953 64.986h4.008v-20.14h-4.008v20.14Zm-12.84-32.223h6.646c-.141 3.438.876 6.28 1.984 8.317-5.15-2.847-8.049-5.635-8.63-8.317Zm14.16-4.028h1.172l1.066 2.014h-3.388l1.15-2.014Zm.684-5.02.987.992-.987.993-.987-.993.987-.993Zm6.62 17.034c1.132-2.012 2.125-4.734 2.01-7.986h5.129c-.602 3.25-4.007 6.048-7.139 7.986Zm-5.618-7.986h5.62c.204 5.284-3.072 9.083-4.026 10.07H36.96v-10.07Zm-3.573 10.07c-.906-1.02-3.861-4.785-3.618-10.07h5.187v10.07h-1.569Zm18.428-11.077c0-.556-.448-1.007-1.002-1.007H39.781l-1.849-3.494a1.019 1.019 0 0 0-.332-.36l1.07-1.073c.187-.19.293-.445.293-.712v-.806c0-.267-.106-.522-.294-.712l-1.603-1.61a.995.995 0 0 0-.708-.296h-.803a.999.999 0 0 0-.708.295l-1.602 1.611c-.189.19-.294.445-.294.712v.806c0 .267.105.522.294.712l1.005 1.01a1.01 1.01 0 0 0-.425.395l-2.014 3.522H20.002c-.554 0-1.002.451-1.002 1.007 0 4.377 4.245 8.54 12.95 12.716v21.521c0 .556.447 1.007 1.001 1.007h6.012c.554 0 1.002-.451 1.002-1.007v-21.52c4.68-2.274 11.85-6.732 11.85-12.717Zm-8.932-8.165-1.795.897a5.879 5.879 0 0 0-5.295-3.3 5.876 5.876 0 0 0-5.296 3.3l-1.794-.897a7.865 7.865 0 0 1 7.09-4.417c3.025 0 5.742 1.692 7.09 4.417Zm.951-.487c-1.532-3.086-4.613-5.004-8.041-5.004-3.436 0-6.52 1.924-8.05 5.018l-1.794-.895c1.87-3.785 5.642-6.137 9.844-6.137 4.193 0 7.961 2.345 9.834 6.119l-1.793.899Zm-18.842-1.36-1.795-.897C25.59 16.007 30.417 13 35.792 13c5.357 0 10.178 2.994 12.578 7.813l-1.793.901c-2.057-4.133-6.19-6.7-10.785-6.7-4.61 0-8.748 2.579-10.801 6.73Zm27.22 24.45a11.258 11.258 0 0 0 1.225-5.375h5.359c-.8 2.04-3.844 3.952-6.583 5.376Zm-7.236 18.792h3.006V49.881h-3.006v15.105ZM61 39.812c0-.556-.448-1.007-1.002-1.007H49.984v2.014h1.446c.114 3.757-2.084 6.288-2.845 7.048h-3.61v-3.02H42.97v21.146c0 .556.448 1.007 1.002 1.007h5.01c.554 0 1.001-.451 1.001-1.007V49.517C54.124 47.587 61 44.365 61 39.812Z"/></g></svg>
